X:8442
T:Kay Handrahan's Pipe March
R:March
C:Brenda Stubbert
O:20th Century Cape Breton
S:Tune of the Month. April,1998.
A:http://www.capebretonisland.com/Music/Stubbert
D:Some Tasty Tunes, Brenda Stubbert, 1999
N:Contacts ...
N:Recordings and bookings
N:..... 
N:Tune books and related recordings
N:..... Cranford Publications <http://www.cranfordpub.com>
B:Previously Unpublished.
H:Copyrights:published by Stubbert Music (SOCAN)
Z:Paul Stewart Cranford - psc@cranfordpub.com
Q:244
L:1/8
M:C|
K:Ador
AA| G>ED<E {D}G2 B<d|e2 d<B {B/c/}d2B<G|!
A2 e<a g2 e<d|{d}e2 A<A A2 B>A|G>ED<E G>ed<B|A4 A2:|!
|:Aab<g| a>gf<d g2 g>a  |g>ed<B d2 e<f|g2 a<g e2 d<B|!
[1A2 a2 g>ab<g|a>gf<d g2 g>a|g>ed<B e2 d<B|{B}e2 A2 A2:|!
[2A2e<a g2 e>d|e2 A<A A2 B>A |G>ED<E G>ed<B|A4 A2|]!
